img/linkedin_white.svg

<?xml version="1.0" encoding="UTF-8" standalone="no"?>
<svg width="31px" height="32px" viewBox="0 0 31 32" version="1.1" xmlns="http://www.w3.org/2000/svg" xmlns:xlink="http://www.w3.org/1999/xlink" xmlns:sketch="http://www.bohemiancoding.com/sketch/ns">
    <!-- Generator: Sketch 3.0.4 (8053) - http://www.bohemiancoding.com/sketch -->
    <title>linked-in_white</title>
    <desc>Created with Sketch.</desc>
    <defs></defs>
    <g id="Social" stroke="none" stroke-width="1" fill="none" fill-rule="evenodd" sketch:type="MSPage">
        <g id="linked-in_white" sketch:type="MSArtboardGroup" fill="#FFFFFF">
            <g id="Fill-5-+-Fill-4" sketch:type="MSLayerGroup" transform="translate(0.000000, 2.000000)">
                <path d="M10.7419359,9.88575923 L16.7055142,9.88575923 L16.7055142,12.617538 L16.7903063,12.617538 C17.6203758,11.0454894 19.648594,9.38709659 22.6727792,9.38709659 C28.9629136,9.38709659 30.1247782,13.528519 30.1247782,18.9158218 L30.1247782,29.8864 L23.9157492,29.8864 L23.9157492,20.1605381 C23.9157492,17.8397195 23.8701516,14.856475 20.6845317,14.856475 C17.4498216,14.856475 16.9563978,17.3833558 16.9563978,19.9921182 L16.9563978,29.8864 L10.7419359,29.8864 L10.7419359,9.88575923" id="Fill-5" sketch:type="MSShapeGroup"></path>
                <path d="M3.60317716,0 C5.59045452,0 7.20577223,1.61531771 7.20577223,3.60337119 C7.20577223,5.59355903 5.59045452,7.20887674 3.60317716,7.20887674 C1.61066094,7.20887674 0,5.59355903 0,3.60337119 C0,1.61531771 1.61066094,0 3.60317716,0 L3.60317716,0 Z M0.493423776,9.94337193 L6.71234845,9.94337193 L6.71234845,29.9440127 L0.493423776,29.9440127 L0.493423776,9.94337193 Z" id="Fill-4" sketch:type="MSShapeGroup"></path>
            </g>
        </g>
    </g>
</svg>

<svg viewBox="0 0 31 32" xmlns="http://www.w3.org/2000/svg"><g fill="#fff" fill-rule="evenodd" transform="translate(0 2)"><path d="m10.742 9.886h5.964v2.732h.085c.83-1.572 2.858-3.23 5.882-3.23 6.29 0 7.452 4.141 7.452 9.529v10.971h-6.209v-9.726c0-2.321-.046-5.304-3.231-5.304-3.235 0-3.728 2.527-3.728 5.136v9.894h-6.214v-20"/><path d="m3.603 0c1.987 0 3.603 1.615 3.603 3.603 0 1.99-1.615 3.606-3.603 3.606-1.993 0-3.603-1.615-3.603-3.606 0-1.988 1.611-3.603 3.603-3.603m-3.11 9.943h6.219v20h-6.219v-20"/></g></svg>
